X:1
T:Title
%%score 1 ( 2 3 )
L:1/8
Q:1/4=100
M:2/4
K:D
V:1 treble nm="Grand Piano, Unnamed-000"
V:2 bass nm="Choir Pad, Malvern, LM"
V:3 bass 
V:1
 [DF]2 [DF][DF] | [DF]3 [DF] | [DF][CE] [DF][EG] | [FA]3 [FA] | [GB]2 [GB]2 | [FA]3 [DF] | %6
w: By~Lowell~Mason~(1792\-1872) * *||||||
 [EG][FA] [DF][EG] | [CE]4 | [DF]2 [DF][DF] | [DF]3 [DF] | [DF][CE] [DF][EG] | [FA]3 [FA] | %12
w: ||||||
 [GB]2 [GB]2 | [FA]3 [DF] | [CE][DF] [EG][FA] | [DF]4- | [DF]4 |] %17
w: |||||
V:2
 [D,A,]2 [D,A,][D,A,] | [D,A,]3 [F,A,] | z2 A,2 | [D,A,]3 [D,D] | [D,D]2 [D,D]2 | [D,D]3 [D,A,] | %6
 [A,,A,]2 [A,,A,]2 | [A,,A,]4 | [D,A,]2 [D,A,][D,A,] | [D,A,]3 [F,A,] | z2 A,2 | [D,A,]3 [D,D] | %12
 [G,D]2 [G,D]2 | [D,D]3 [F,A,] | A,2 [A,,A,]2 | [D,A,]4- | [D,A,]4 |] %17
V:3
 x4 | x4 | A,G, F,E, | x4 | x4 | x4 | x4 | x4 | x4 | x4 | A,G, F,E, | x4 | x4 | x4 | x4 | x4 | %16
 x4 |] %17

